icons/midnadark/status/64/mail-unread-new.svg

<svg xmlns="http://www.w3.org/2000/svg" viewBox="0 0 48 48"><defs><linearGradient id="0" x1="11.818" y1="-1049.18" x2="12.182" y2="-1033.91" gradientUnits="userSpaceOnUse"><stop stop-color="#c52828"/><stop offset="1" stop-color="#ff5454"/></linearGradient></defs><circle transform="matrix(-2.625 0 0-2.625 52.872-2709.57)" cy="-1041.36" cx="11" r="8" opacity=".98" fill="url(#0)"/><path d="m123.78 73.993l-11.242-10.999 11.242-10.999c1.63-1.521 2.173-3.422 1.63-5.703-.651-2.227-2.063-3.612-4.237-4.155l-15.316-3.911 4.318-15.15c.651-2.226.137-4.128-1.549-5.703-1.574-1.684-3.475-2.2-5.703-1.548l-15.15 4.318-3.912-15.317c-.543-2.227-1.926-3.612-4.153-4.155-2.228-.598-4.129-.081-5.703 1.548l-11 11.325-10.999-11.325c-1.575-1.684-3.476-2.2-5.703-1.548-2.227.543-3.612 1.928-4.155 4.155l-3.911 15.317-15.15-4.318c-2.227-.652-4.128-.136-5.703 1.548-1.684 1.575-2.2 3.476-1.548 5.703l4.318 15.15-15.317 3.911c-2.172.543-3.585 1.928-4.236 4.155-.544 2.281 0 4.182 1.629 5.703l11.243 10.999-11.243 10.999c-1.629 1.521-2.172 3.422-1.629 5.703.651 2.227 2.064 3.612 4.236 4.155l15.317 3.91-4.318 15.15c-.652 2.227-.136 4.127 1.548 5.703 1.575 1.684 3.476 2.199 5.703 1.548l15.15-4.317 3.911 15.316c.543 2.227 1.928 3.639 4.155 4.236 2.281.543 4.182 0 5.703-1.629l10.999-11.243 11 11.244c1.086 1.193 2.471 1.791 4.154 1.791.381 0 .896-.055 1.549-.162 2.227-.652 3.611-2.064 4.154-4.236l3.91-15.316 15.15 4.317c2.228.651 4.129.136 5.703-1.548 1.685-1.576 2.2-3.477 1.549-5.703l-4.317-15.15 15.315-3.91c2.175-.543 3.586-1.928 4.237-4.155.544-2.282.0001-4.183-1.63-5.704" transform="matrix(.2236 0 0 .2236 9.939 9.922)" stroke="none" stroke-opacity=".8" fill="#fbe3e3"/></svg>

<?xml version="1.0" encoding="UTF-8" standalone="no"?>
<!-- Created with Inkscape (http://www.inkscape.org/) -->

<svg
   xmlns:sketch="http://www.bohemiancoding.com/sketch/ns"
   xmlns:dc="http://purl.org/dc/elements/1.1/"
   xmlns:cc="http://creativecommons.org/ns#"
   xmlns:rdf="http://www.w3.org/1999/02/22-rdf-syntax-ns#"
   xmlns:svg="http://www.w3.org/2000/svg"
   xmlns="http://www.w3.org/2000/svg"
   xmlns:xlink="http://www.w3.org/1999/xlink"
   xmlns:sodipodi="http://sodipodi.sourceforge.net/DTD/sodipodi-0.dtd"
   xmlns:inkscape="http://www.inkscape.org/namespaces/inkscape"
   width="48"
   height="48"
   id="svg5453"
   version="1.1"
   inkscape:version="0.91 r13725"
   sodipodi:docname="mail-unread-new.svg"
   viewBox="0 0 48 48">
  <defs
     id="defs5455">
    <linearGradient
       inkscape:collect="always"
       xlink:href="#linearGradient5076"
       id="linearGradient4209"
       x1="11.818182"
       y1="-1049.1804"
       x2="12.181818"
       y2="-1033.9076"
       gradientUnits="userSpaceOnUse" />
    <linearGradient
       id="linearGradient4422">
      <stop
         id="stop4424"
         offset="0"
         style="stop-color:#197ff1;stop-opacity:1" />
      <stop
         id="stop4426"
         offset="1"
         style="stop-color:#21c6fb;stop-opacity:1" />
    </linearGradient>
    <linearGradient
       id="linearGradient5076"
       inkscape:collect="always">
      <stop
         id="stop5078"
         offset="0"
         style="stop-color:#c52828;stop-opacity:1" />
      <stop
         id="stop5080"
         offset="1"
         style="stop-color:#ff5454;stop-opacity:1" />
    </linearGradient>
  </defs>
  <sodipodi:namedview
     id="base"
     pagecolor="#5a5a5a"
     bordercolor="#666666"
     borderopacity="1.0"
     inkscape:pageopacity="0"
     inkscape:pageshadow="2"
     inkscape:zoom="8"
     inkscape:cx="4.1875"
     inkscape:cy="23.743317"
     inkscape:document-units="px"
     inkscape:current-layer="g4201"
     showgrid="false"
     fit-margin-top="0"
     fit-margin-left="0"
     fit-margin-right="0"
     fit-margin-bottom="0"
     inkscape:window-width="1366"
     inkscape:window-height="687"
     inkscape:window-x="0"
     inkscape:window-y="0"
     inkscape:window-maximized="1"
     inkscape:showpageshadow="false"
     borderlayer="true"
     showguides="false"
     showborder="false">
    <inkscape:grid
       type="xygrid"
       id="grid4063" />
    <sodipodi:guide
       position="1.1650391e-05,43.999996"
       orientation="0,48"
       id="guide4148" />
    <sodipodi:guide
       position="48.000012,43.999996"
       orientation="-4,0"
       id="guide4150" />
    <sodipodi:guide
       position="-40,15"
       orientation="0,-48"
       id="guide4152" />
    <sodipodi:guide
       position="1.1650391e-05,4.0000264"
       orientation="4,0"
       id="guide4154" />
    <sodipodi:guide
       position="1.1650391e-05,2.6367188e-05"
       orientation="0,48"
       id="guide4156" />
    <sodipodi:guide
       position="48.000012,2.6367188e-05"
       orientation="-4,0"
       id="guide4158" />
    <sodipodi:guide
       position="48.000012,4.0000264"
       orientation="0,-48"
       id="guide4160" />
    <sodipodi:guide
       position="48.000012,48.000026"
       orientation="0,-4"
       id="guide4162" />
    <sodipodi:guide
       position="44.000012,48.000026"
       orientation="48,0"
       id="guide4164" />
    <sodipodi:guide
       position="44.000012,2.6367188e-05"
       orientation="0,4"
       id="guide4166" />
    <sodipodi:guide
       position="48.000012,2.6367188e-05"
       orientation="-48,0"
       id="guide4168" />
    <sodipodi:guide
       position="4.0000422,48.000026"
       orientation="0,-4"
       id="guide4170" />
    <sodipodi:guide
       position="4.2167969e-05,48.000026"
       orientation="48,0"
       id="guide4172" />
    <sodipodi:guide
       position="4.2167969e-05,2.6367188e-05"
       orientation="0,4"
       id="guide4174" />
    <sodipodi:guide
       position="50,46"
       orientation="-48,0"
       id="guide4176" />
    <sodipodi:guide
       position="4.0000117,47.999996"
       orientation="43.999969,0"
       id="guide4638" />
    <sodipodi:guide
       position="4.0000117,4.0000264"
       orientation="0,20"
       id="guide4640" />
    <sodipodi:guide
       position="24.000012,4.0000264"
       orientation="-43.999969,0"
       id="guide4642" />
    <sodipodi:guide
       position="24.000012,47.999996"
       orientation="0,-20"
       id="guide4644" />
    <sodipodi:guide
       position="4.0000422,24.000026"
       orientation="20,0"
       id="guide4666" />
    <sodipodi:guide
       position="4.0000422,4.0000264"
       orientation="0,39.999969"
       id="guide4668" />
    <sodipodi:guide
       position="44.000012,4.0000264"
       orientation="-20,0"
       id="guide4670" />
  </sodipodi:namedview>
  <metadata
     id="metadata5458">
    <rdf:RDF>
      <cc:Work
         rdf:about="">
        <dc:format>image/svg+xml</dc:format>
        <dc:type
           rdf:resource="http://purl.org/dc/dcmitype/StillImage" />
        <dc:title />
      </cc:Work>
    </rdf:RDF>
  </metadata>
  <g
     inkscape:label="Capa 1"
     inkscape:groupmode="layer"
     id="layer1"
     transform="translate(-384.57143,-499.798)">
    <g
       id="g4201"
       transform="matrix(0.87500001,0,0,0.87500001,51.071424,65.474743)">
      <g
         id="g4217"
         transform="matrix(2.6666666,0,0,2.6666666,-718.61902,-905.99662)">
        <g
           transform="matrix(-1.125,0,0,1.125,435.07143,-635.35946)"
           id="layer1-6"
           inkscape:label="Capa 1">
          <circle
             transform="scale(1,-1)"
             cy="-1041.3622"
             cx="11"
             id="path4150"
             style="opacity:0.98000004;fill:url(#linearGradient4209);fill-opacity:1;stroke:none;stroke-width:1.25835526;stroke-linecap:round;stroke-linejoin:round;stroke-miterlimit:4;stroke-dasharray:none;stroke-opacity:1"
             r="8" />
        </g>
        <g
           transform="translate(414.69643,-508.18921)"
           id="layer1-03"
           inkscape:label="Capa 1"
           style="fill:#fbe3e3;fill-opacity:1">
          <g
             style="fill:#fbe3e3;fill-opacity:1;stroke:#4f96d1;stroke-opacity:1"
             inkscape:label="Capa 1"
             id="layer1-0"
             transform="matrix(0.90537551,0,0,0.90537551,-365.91682,562.06022)" />
          <g
             inkscape:label="Capa 1"
             id="layer1-00"
             transform="translate(-401.01229,510.63371)"
             style="fill:#fbe3e3;fill-opacity:1">
            <g
               inkscape:label="Capa 1"
               id="layer1-4"
               transform="translate(5.05585,-5.251147)"
               style="fill:#fbe3e3;fill-opacity:1">
              <g
                 style="fill:#fbe3e3;fill-opacity:1;stroke:#000000;stroke-opacity:0.8"
                 inkscape:label="Capa 1"
                 id="layer1-9"
                 transform="translate(-11.317,5.8824915)">
                <g
                   inkscape:label="Capa 1"
                   id="layer1-79"
                   transform="translate(1.8733025,-0.28410538)"
                   style="fill:#fbe3e3;fill-opacity:1">
                  <g
                     inkscape:label="Capa 1"
                     id="layer1-2"
                     transform="translate(-2.0518724,-0.97858527)"
                     style="fill:#fbe3e3;fill-opacity:1">
                    <g
                       inkscape:label="Capa 1"
                       id="layer1-26"
                       transform="matrix(2.2521903,0,0,2.2521903,-530.87554,-657.74974)"
                       style="fill:#fbe3e3;fill-opacity:1">
                      <g
                         inkscape:label="Capa 1"
                         id="layer1-46"
                         transform="translate(1.3573925,-1.2626907)"
                         style="fill:#fbe3e3;fill-opacity:1">
                        <g
                           inkscape:label="Capa 1"
                           id="layer1-21"
                           transform="translate(-0.41037448,-0.59977801)"
                           style="fill:#fbe3e3;fill-opacity:1">
                          <g
                             id="g4187-4"
                             transform="matrix(0.7863692,0,0,0.78394543,92.594038,111.881)"
                             style="fill:#fbe3e3;fill-opacity:1">
                            <g
                               style="fill:#fbe3e3;fill-opacity:1;stroke:none"
                               inkscape:label="Capa 1"
                               id="layer1-43"
                               transform="matrix(1.2716673,0,0,1.275599,-114.65779,-139.97713)">
                              <g
                                 transform="matrix(0.81010415,0,0,0.81010415,82.799227,101.17697)"
                                 id="g4268"
                                 style="fill:#fbe3e3;fill-opacity:1">
                                <g
                                   transform="matrix(0.85388787,0,0,0.85125599,59.088518,78.457749)"
                                   id="g4187-9"
                                   style="fill:#fbe3e3;fill-opacity:1;stroke:none">
                                <g
                                   id="text8822"
                                   style="font-style:normal;font-weight:normal;font-size:18.52626991px;line-height:125%;font-family:sans-serif;letter-spacing:0px;word-spacing:0px;fill:#fbe3e3;fill-opacity:1;stroke:none;stroke-width:0.09347666px;stroke-linecap:butt;stroke-linejoin:miter;stroke-opacity:1"
                                   transform="scale(0.99845769,1.0015447)" />
                                </g>
                                <g
                                   style="fill:#fbe3e3;fill-opacity:1"
                                   transform="matrix(0.05252311,0,0,0.05252311,408.98875,524.83322)"
                                   sketch:type="MSLayerGroup"
                                   id="certificate6">
                                <path
                                   style="fill:#fbe3e3;fill-opacity:1"
                                   inkscape:connector-curvature="0"
                                   sketch:type="MSShapeGroup"
                                   id="path267"
                                   d="M 123.777,73.993 112.535,62.994 123.777,51.995 c 1.63,-1.521 2.173,-3.422 1.63,-5.703 -0.651,-2.227 -2.063,-3.612 -4.237,-4.155 l -15.316,-3.911 4.318,-15.154 c 0.651,-2.226 0.137,-4.128 -1.549,-5.703 -1.574,-1.684 -3.475,-2.2 -5.703,-1.548 L 87.768,20.139 83.856,4.822 C 83.313,2.595 81.93,1.21 79.703,0.667 77.475,0.069 75.574,0.586 74,2.215 L 63,13.54 52.001,2.215 C 50.426,0.531 48.525,0.015 46.298,0.667 44.071,1.21 42.686,2.595 42.143,4.822 L 38.232,20.139 23.078,15.821 c -2.227,-0.652 -4.128,-0.136 -5.703,1.548 -1.684,1.575 -2.2,3.476 -1.548,5.703 l 4.318,15.154 -15.317,3.911 c -2.172,0.543 -3.585,1.928 -4.236,4.155 -0.544,2.281 0,4.182 1.629,5.703 L 13.464,62.994 2.221,73.993 c -1.629,1.521 -2.172,3.422 -1.629,5.703 0.651,2.227 2.064,3.612 4.236,4.155 l 15.317,3.91 -4.318,15.154 c -0.652,2.227 -0.136,4.127 1.548,5.703 1.575,1.684 3.476,2.199 5.703,1.548 l 15.154,-4.317 3.911,15.316 c 0.543,2.227 1.928,3.639 4.155,4.236 2.281,0.543 4.182,0 5.703,-1.629 L 63,112.529 74,123.773 c 1.086,1.193 2.471,1.791 4.154,1.791 0.381,0 0.896,-0.055 1.549,-0.162 2.227,-0.652 3.611,-2.064 4.154,-4.236 l 3.91,-15.316 15.153,4.317 c 2.228,0.651 4.129,0.136 5.703,-1.548 1.685,-1.576 2.2,-3.477 1.549,-5.703 l -4.317,-15.154 15.315,-3.91 c 2.175,-0.543 3.586,-1.928 4.237,-4.155 0.544,-2.282 0.001,-4.183 -1.63,-5.704 l 0,0 z" />
                                </g>
                              </g>
                            </g>
                          </g>
                        </g>
                      </g>
                    </g>
                  </g>
                </g>
              </g>
            </g>
          </g>
        </g>
      </g>
    </g>
  </g>
</svg>
